public/img/assets/icons/weather-conditions/thunder-showers-day.svg

<svg width="120" height="120" viewBox="0 0 120 120" fill="none" xmlns="http://www.w3.org/2000/svg">
<path d="M51.4835 38C51.4835 47.1113 58.8953 54.5231 68.0066 54.5231C77.1179 54.5231 84.5297 47.1113 84.5297 38C84.5297 28.8887 77.1179 21.4769 68.0066 21.4769C58.8953 21.4769 51.4835 28.8887 51.4835 38ZM64.7 7C64.7 5.89543 65.5954 5 66.7 5H69.3C70.4046 5 71.3 5.89543 71.3 7V12.9C71.3 14.0046 70.4046 14.9 69.3 14.9H66.7C65.5954 14.9 64.7 14.0046 64.7 12.9V7ZM35 36.7C35 35.5954 35.8954 34.7 37 34.7H42.9C44.0046 34.7 44.9 35.5954 44.9 36.7V39.3C44.9 40.4046 44.0046 41.3 42.9 41.3H37C35.8954 41.3 35 40.4046 35 39.3V36.7ZM91.1 36.7C91.1 35.5954 91.9954 34.7 93.1 34.7H99C100.105 34.7 101 35.5954 101 36.7V39.3C101 40.4046 100.105 41.3 99 41.3H93.1C91.9954 41.3 91.1 40.4046 91.1 39.3V36.7ZM83.4128 20.7494C82.6318 19.9684 82.6318 18.702 83.4128 17.921L87.587 13.7468C88.368 12.9658 89.6344 12.9658 90.4154 13.7468L92.2532 15.5846C93.0342 16.3656 93.0342 17.632 92.2532 18.413L88.079 22.5872C87.298 23.3682 86.0316 23.3682 85.2506 22.5872L83.4128 20.7494ZM50.7497 22.5902C49.9686 23.3713 48.702 23.3712 47.921 22.5898L43.7499 18.4168C42.969 17.6355 42.9694 16.3691 43.7508 15.5882L45.5905 13.7498C46.3719 12.9689 47.6384 12.9695 48.4191 13.7509L52.5885 17.9243C53.3689 18.7054 53.3686 19.9713 52.5879 20.752L50.7497 22.5902Z" fill="#FDF72A"/>
<path d="M83.1875 49.6C83.0949 49.6 83.0178 49.6306 82.9406 49.6306C83.1103 48.8344 83.1875 48.0075 83.1875 47.15C83.1875 40.3819 77.6637 34.9 70.8438 34.9C67.048 34.9 63.6998 36.6303 61.4316 39.31C58.5617 33.7975 52.8373 30 46.1563 30C36.6053 30 28.875 37.6716 28.875 47.15C28.875 48.2678 28.9984 49.3397 29.199 50.3963C23.2895 52.3256 19 57.7922 19 64.3C19 72.4156 25.6348 79 33.8125 79H83.1875C91.3652 79 98 72.4156 98 64.3C98 56.1844 91.3652 49.6 83.1875 49.6Z" fill="#3FD5FE"/>
<path d="M78 82.2222V70L69 85.7778H78V98L87 82.2222H78Z" fill="#6A9CFF"/>
<path d="M36 82.2222V70L27 85.7778H36V98L45 82.2222H36Z" fill="#6A9CFF"/>
<path d="M57 91.2222V79L48 94.7778H57V107L66 91.2222H57Z" fill="#6A9CFF"/>
<path d="M45.2308 100.648C43.8769 105.273 41 106.522 41 109.782C41 112.667 43.274 115 46.0769 115C48.8798 115 51.1538 112.667 51.1538 109.782C51.1538 106.512 48.2769 105.293 46.9231 100.648C46.6904 99.8048 45.4952 99.7632 45.2308 100.648Z" fill="#6A9CFF"/>
<path d="M67.2308 100.648C65.8769 105.273 63 106.522 63 109.782C63 112.667 65.274 115 68.0769 115C70.8798 115 73.1538 112.667 73.1538 109.782C73.1538 106.512 70.2769 105.293 68.9231 100.648C68.6904 99.8048 67.4952 99.7632 67.2308 100.648Z" fill="#6A9CFF"/>
<path fill-rule="evenodd" clip-rule="evenodd" d="M78.0001 79V70L72.8663 79H78.0001ZM36.0001 79V70L31.0513 78.6757C32.0215 78.8881 33.029 79 34.0626 79H36.0001Z" fill="#3377FF"/>
<path fill-rule="evenodd" clip-rule="evenodd" d="M68.0066 54.5231C58.8953 54.5231 51.4835 47.1113 51.4835 38C51.4835 35.641 51.9804 33.3958 52.875 31.3638C56.5692 32.9379 59.5889 35.7704 61.4317 39.31C63.6998 36.6303 67.0481 34.9 70.8438 34.9C76.9107 34.9 81.9519 39.2382 82.9912 44.9608C80.3597 50.6034 74.6326 54.5231 68.0066 54.5231Z" fill="#F7D056"/>
</svg>

<svg width="120" height="120" fill="none" xmlns="http://www.w3.org/2000/svg"><path d="M51.483 38c0 9.111 7.412 16.523 16.524 16.523 9.11 0 16.523-7.412 16.523-16.523s-7.412-16.523-16.523-16.523c-9.112 0-16.524 7.412-16.524 16.523ZM64.7 7a2 2 0 0 1 2-2h2.6a2 2 0 0 1 2 2v5.9a2 2 0 0 1-2 2h-2.6a2 2 0 0 1-2-2V7ZM35 36.7a2 2 0 0 1 2-2h5.9a2 2 0 0 1 2 2v2.6a2 2 0 0 1-2 2H37a2 2 0 0 1-2-2v-2.6Zm56.1 0a2 2 0 0 1 2-2H99a2 2 0 0 1 2 2v2.6a2 2 0 0 1-2 2h-5.9a2 2 0 0 1-2-2v-2.6Zm-7.687-15.95a2 2 0 0 1 0-2.829l4.174-4.174a2 2 0 0 1 2.828 0l1.838 1.838a2 2 0 0 1 0 2.828l-4.174 4.174a2 2 0 0 1-2.828 0l-1.838-1.838ZM50.75 22.59a2 2 0 0 1-2.829 0l-4.171-4.173a2 2 0 0 1 0-2.829l1.84-1.838a2 2 0 0 1 2.83 0l4.169 4.174a2 2 0 0 1-.001 2.828L50.75 22.59Z" fill="#FDF72A"/><path d="M83.188 49.6c-.093 0-.17.03-.247.03.17-.796.246-1.623.246-2.48 0-6.768-5.523-12.25-12.343-12.25-3.796 0-7.144 1.73-9.412 4.41-2.87-5.513-8.595-9.31-15.276-9.31-9.55 0-17.281 7.672-17.281 17.15 0 1.118.123 2.19.324 3.246C23.289 52.326 19 57.792 19 64.3 19 72.416 25.635 79 33.813 79h49.374C91.365 79 98 72.416 98 64.3s-6.635-14.7-14.813-14.7Z" fill="#3FD5FE"/><path d="M78 82.222V70l-9 15.778h9V98l9-15.778h-9ZM36 82.222V70l-9 15.778h9V98l9-15.778h-9ZM57 91.222V79l-9 15.778h9V107l9-15.778h-9ZM45.23 100.648c-1.353 4.625-4.23 5.874-4.23 9.134 0 2.885 2.274 5.218 5.077 5.218s5.077-2.333 5.077-5.218c0-3.27-2.877-4.489-4.23-9.134-.234-.843-1.429-.885-1.693 0ZM67.23 100.648c-1.353 4.625-4.23 5.874-4.23 9.134 0 2.885 2.274 5.218 5.077 5.218s5.077-2.333 5.077-5.218c0-3.27-2.877-4.489-4.23-9.134-.234-.843-1.429-.885-1.693 0Z" fill="#6A9CFF"/><path fill-rule="evenodd" clip-rule="evenodd" d="M78 79v-9l-5.134 9H78Zm-42 0v-9l-4.949 8.676c.97.212 1.978.324 3.012.324H36Z" fill="#37F"/><path fill-rule="evenodd" clip-rule="evenodd" d="M68.007 54.523c-9.112 0-16.524-7.412-16.524-16.523 0-2.359.497-4.604 1.392-6.636a17.34 17.34 0 0 1 8.557 7.946c2.268-2.68 5.616-4.41 9.412-4.41 6.067 0 11.108 4.338 12.147 10.06-2.631 5.643-8.358 9.563-14.984 9.563Z" fill="#F7D056"/></svg>
